X: 2
T: Tuttle's
R: reel
M: 4/4
L: 1/8
K: Ddor
A,D DE FE FG|Ac Gc Ad d2|A,D DE FE FG|AF GE FD D2|
A,D DE FE FG|Ac Gc Ad de|fd ec dc AB|cA GE ED D2:|
d2 dA c2 cA|d2 dA cA GA|d2 dA cd cA|EF GE ED D2|
d2 dA c2 cA|d2 dA cA GA|fd ec dc AB|cA GE ED D2:|


Tune 528	Setting 28327

